img/svg/arrows.svg

<?xml version="1.0" encoding="utf-8"?><!DOCTYPE svg PUBLIC "-//W3C//DTD SVG 1.1//EN" "http://www.w3.org/Graphics/SVG/1.1/DTD/svg11.dtd"><svg version="1.1" baseProfile="full" xmlns="http://www.w3.org/2000/svg" xmlns:xlink="http://www.w3.org/1999/xlink" xmlns:ev="http://www.w3.org/2001/xml-events"   height="28px"   width="25px" ><path fill="rgb( 255, 102, 0 )" d="M24.096,8.88900000000001 C24.096,8.88900000000001 23.836,9.149 23.836,9.149 C23.788,9.28399999999999 23.716,9.411 23.6079999999999,9.51900000000001 C23.6079999999999,9.51900000000001 16.519,16.608 16.519,16.608 C16.127,17 15.492,17 15.101,16.608 C15.101,16.608 14.3920000000001,15.9 14.3920000000001,15.9 C14,15.508 14,14.873 14.3920000000001,14.481 C14.3920000000001,14.481 18.873,10 18.873,10 C18.873,10 2,10 2,10 C2,10 1.29600000000005,9.572 1,9 C0.83900000000006,8.68899999999999 1,8.286 1,8 C1,7.32400000000001 2,7 2,7 C2,7 19.379,7 19.379,7 C19.379,7 14.904,2.52500000000001 14.904,2.52500000000001 C14.513,2.13499999999999 14.513,1.501 14.904,1.11099999999999 C14.904,1.11099999999999 15.611,0.404 15.611,0.404 C16.001,0.01300000000001 16.635,0.01300000000001 17.025,0.404 C17.025,0.404 24.096,7.47499999999999 24.096,7.47499999999999 C24.487,7.86500000000001 24.487,8.499 24.096,8.88900000000001 ZM9.00800000000004,11.391 C9.00800000000004,11.391 9.726,12.099 9.726,12.099 C10.122,12.489 10.122,13.123 9.726,13.514 C9.726,13.514 5.18399999999997,17.992 5.18399999999997,17.992 C5.18399999999997,17.992 22.822,17.992 22.822,17.992 C22.822,17.992 23.837,18.317 23.837,18.993 C23.837,19.279 24,19.682 23.837,19.994 C23.537,20.566 22.822,20.995 22.822,20.995 C22.822,20.995 5.697,20.995 5.697,20.995 C5.697,20.995 10.246,25.479 10.246,25.479 C10.643,25.871 10.643,26.507 10.246,26.899 C10.246,26.899 9.52599999999995,27.608 9.52599999999995,27.608 C9.12900000000002,28 8.48400000000004,28 8.08699999999999,27.608 C8.08699999999999,27.608 0.89099999999996,20.513 0.89099999999996,20.513 C0.78200000000004,20.405 0.71000000000004,20.278 0.65999999999997,20.143 C0.65999999999997,20.143 0.39599999999996,19.883 0.39599999999996,19.883 C0,19.492 0,18.858 0.39599999999996,18.468 C0.39599999999996,18.468 7.57299999999998,11.391 7.57299999999998,11.391 C7.96900000000005,11 8.61199999999997,11 9.00800000000004,11.391 Z "/></svg>

<svg baseProfile="full" xmlns="http://www.w3.org/2000/svg" height="28" width="25"><path fill="rgb( 255, 102, 0 )" d="M24.096 8.889l-.26.26c-.048.135-.12.262-.228.37l-7.089 7.089c-.392.392-1.027.392-1.418 0l-.709-.708c-.392-.392-.392-1.027 0-1.419l4.481-4.481h-16.873s-.704-.428-1-1c-.161-.311 0-.714 0-1 0-.676 1-1 1-1h17.379l-4.475-4.475c-.391-.39-.391-1.024 0-1.414l.707-.707c.39-.391 1.024-.391 1.414 0l7.071 7.071c.391.39.391 1.024 0 1.414zm-15.088 2.502l.718.708c.396.39.396 1.024 0 1.415l-4.542 4.478h17.638s1.015.325 1.015 1.001c0 .286.163.689 0 1.001-.3.572-1.015 1.001-1.015 1.001h-17.125l4.549 4.484c.397.392.397 1.028 0 1.42l-.72.709c-.397.392-1.042.392-1.439 0l-7.196-7.095c-.109-.108-.181-.235-.231-.37l-.264-.26c-.396-.391-.396-1.025 0-1.415l7.177-7.077c.396-.391 1.039-.391 1.435 0z"/></svg>
